X: 10
T: Father O'Grady's Visit To Bocca
C: Josie McDermott
Z: Allan Evans
S: https://thesession.org/tunes/180#setting53785
R: reel
M: 4/4
L: 1/8
K: Dmaj
|: Adde fded | ABAG EGde | fded cAAG | EFGE D2de |
fded ABAG | EFGE ABde | f2ed cAAG | EFGE D4 :|
dcde f2ge | dfed cAAF | G3A G~E3 | edcA GEE2 |
Adde f2ge | dfed cAa2 | fefa g2gg | fage dAFG |
Adde f2ge | dfed cAAF | G3A G~E3 | edcA GEE2 |
Adde f2ge | dfed cAa2 | fefa g2gg | fage d2FG ||

%-------------------- TUNE SEPARATOR --------------------%

